icon-themes/sifr_svg/cmd/sc_graphicfiltersmooth.svg

<svg viewBox="0 0 16 16" xmlns="http://www.w3.org/2000/svg"><path d="m6 2c-.554 0-1 .446-1 1v4.6c-.024243 0-.048332.024216-.072266.034766-.1455797-.371738-.527734-.634766-.927734-.634766-.554 0-1 .446-1 1v3c0 1.656854 2.2385763 3 5 3 2.761424 0 5-1.343146 5-3v-3c0-.554-.446-1-1-1-.4 0-.8.26-.927734.636719-.02392-.0112-.04801-.02227-.07227-.0332v-.603519c.000004-.554-.445996-1-.999996-1s-1 .446-1 1v-1c0-.554-.446-1-1-1s-1 .446-1 1v-3c0-.554-.446-1-1-1z" fill="#555753"/></svg>

<svg xmlns="http://www.w3.org/2000/svg" viewBox="0 0 16 16">
  <path
     style="fill:#555753"
     d="M 6,2 C 5.446,2 5,2.446 5,3 V 7.6 C 4.975757,7.6 4.951668,7.624216 4.927734,7.634766 4.7821543,7.263028 4.4,7 4,7 3.446,7 3,7.446 3,8 v 3 c 0,1.656854 2.2385763,3 5,3 2.761424,0 5,-1.343146 5,-3 V 8 c 0,-0.554 -0.446,-1 -1,-1 -0.4,0 -0.8,0.26 -0.927734,0.636719 -0.02392,-0.0112 -0.04801,-0.02227 -0.07227,-0.0332 V 7 C 11,6.446 10.554,6 10,6 9.446,6 9,6.446 9,7 V 6 C 9,5.446 8.554,5 8,5 7.446,5 7,5.446 7,6 V 3 C 7,2.446 6.554,2 6,2 Z"
     />
</svg>
